X:1078
T:Here We Are Again 
C:Joe Buchanan's Scottish Tome - Page 465.1
I:465 1
R:Folk
Z:Carl Allison
L:1/8
M:6/8
K:C
|: "C"C2 B, C3 | E2 ^D E3 | "G7"E2 ^C D2 E | "C"C3- C2 C | "G7"G2 A B2 A | "D7"ABA  ^F2 D | "G"G6- | G6 | 
"G7"D2 E F2 E | "C"E2 G- G3 | "D"^F2 G A2 F | "G"G2 B- B2 B | "D"B3 A3 | ^F3 D3 | "G"G3 c2 A | B3 G3 | 
"C"C2 B, C3 | E2 ^D E3 | D2 ^C D2 E | "C"C3- C2 C | "G"G2 A B2 A | "D7"((3ABA)  ^F2 D2 | "G"G6- | G6 | 
"C"c2 B c2 A | "G7"B2 G G3 | "C"c2 B c2 A | "G"B G2- G2 G | "C"c3- c2 G | "F"c6 | "Dm"c2 B "G7"A2 B |1 "C"c3 "G7"G3 :| 
%%leftmargin 520 cm 
|2"C"c3 "G7"B3 |] 

